icons/typography-16.svg

<svg xmlns="http://www.w3.org/2000/svg" width="16" height="16" viewBox="0 0 16 16"><path fill-rule="evenodd" d="M6.21 8.5L4.574 3.594 2.857 8.5H6.21zm.5 1.5l.829 2.487a.75.75 0 001.423-.474L5.735 2.332a1.216 1.216 0 00-2.302-.018l-3.39 9.688a.75.75 0 001.415.496L2.332 10H6.71zm3.13-4.358C10.53 4.374 11.87 4 13 4c1.5 0 3 .939 3 2.601v5.649a.75.75 0 01-1.448.275C13.995 12.82 13.3 13 12.5 13c-.77 0-1.514-.231-2.078-.709-.577-.488-.922-1.199-.922-2.041 0-.694.265-1.411.887-1.944C11 7.78 11.88 7.5 13 7.5h1.5v-.899c0-.54-.5-1.101-1.5-1.101-.869 0-1.528.282-1.84.858a.75.75 0 11-1.32-.716zM14.5 9H13c-.881 0-1.375.22-1.637.444-.253.217-.363.5-.363.806 0 .408.155.697.39.896.249.21.63.354 1.11.354.732 0 1.26-.209 1.588-.449.35-.257.412-.495.412-.551V9z"/></svg>

<svg xmlns="http://www.w3.org/2000/svg" width="16" height="16" viewBox="0 0 16 16">
  <defs/>
  <path d="M6.71,10 L2.332,10 L1.458,12.498 C1.313,12.877 0.893,13.072 0.509,12.938 C0.126,12.804 -0.081,12.389 0.043,12.002 L3.433,2.314 C3.605,1.823 4.07,1.495 4.59,1.499 C5.111,1.503 5.571,1.838 5.735,2.332 L8.962,12.013 C9.087,12.404 8.874,12.822 8.484,12.952 C8.095,13.082 7.674,12.875 7.539,12.487 Z M9.84,5.642 C10.53,4.374 11.87,4 13,4 C14.5,4 16,4.939 16,6.601 L16,12.25 C16,12.61 15.744,12.92 15.39,12.987 C15.036,13.055 14.684,12.86 14.552,12.525 C13.995,12.82 13.3,13 12.5,13 C11.73,13 10.986,12.769 10.422,12.291 C9.845,11.803 9.5,11.092 9.5,10.25 C9.5,9.556 9.765,8.839 10.387,8.306 C11,7.78 11.88,7.5 13,7.5 L14.5,7.5 L14.5,6.601 C14.5,6.061 14,5.5 13,5.5 C12.131,5.5 11.472,5.782 11.16,6.358 C10.962,6.723 10.507,6.858 10.142,6.66 C9.777,6.462 9.642,6.007 9.84,5.642 Z M6.21,8.5 L4.574,3.594 L2.857,8.5 Z M14.5,9 L13,9 C12.119,9 11.625,9.22 11.363,9.444 C11.11,9.661 11,9.944 11,10.25 C11,10.658 11.155,10.947 11.39,11.146 C11.639,11.356 12.02,11.5 12.5,11.5 C13.232,11.5 13.76,11.291 14.088,11.051 C14.438,10.794 14.5,10.556 14.5,10.5 Z"/>
</svg>
